!!!!SEGMENT: pl-kk--kk-i-11--001-005_anonim-missa-o-admirabile-comercium-benedictus.krn
!!!id: 16xx:1236
!!!COM: Anonim
!!!OTL: Missa o Admirabile Comercium – Benedictus
!!!PDT:
!!!SMS-siglum: PL-Kk
!!!SMS-shelfmark: Kk.I.11
!!!NIFC-rismID: 1001154125
!!!URL-scan: http://repozytorium.nifc.pl/skany/pl-kk-nut--i-11
!!!ONB-nifc: UWAGA: części Mszy: 1. Kyrie, 2. Et in terra, 3. Patrem, 4. Sanctus, 5. Benedictus, 6. Agnus Dei. S (skan 0007-0008), T (0015).
!!!SMS-variant:
!!!SMS-altvar:
**kern	**text	**kern	**text
*part2	*part2	*part1	*part1
*staff2	*staff2	*staff1	*staff1
*I"[Tenore]	*	*I"[Canto]	*
*I'T	*	*I'S	*
*clefC4	*	*clefG2	*
*k[]	*	*k[]	*
*M2/1	*	*M2/1	*
*met(C|)	*	*met(C|)	*
*	*	*all\right	*
=1-	=1-	=1-	=1-
1G	Be-	0dd	Be-
2.G/	-ne-	.	.
!LO:TX:t=P:problem:kreska pseudotaktowa	!	!	!
4A/	.	.	.
=2-	=2-	=2-	=2-
!	!	!LO:TX:t=P:problem:kreska pseudotaktowa	!
4B\	.	1dd	-ne-
4A\	.	.	.
4B\	.	.	.
4G/	.	.	.
1.c	.	1.ee	-di-
=3-	=3-	=3-	=3-
.	.	.	.
4B\	.	4dd\	.
!LO:TX:t=P:problem:kreska pseudotaktowa	!	!LO:TX:t=P:problem:kreska pseudotaktowa	!
4A\	.	4cc\	.
4B\	.	4dd\	.
4A\	.	4cc\	.
4G\	.	4b/	.
!LO:TX:t=P:problem:kreska pseudotaktowa	!	!LO:TX:t=P:problem:kreska pseudotaktowa	!
4F/	.	4a/	.
=4-	=4-	=4-	=4-
1G	.	1b	.
2F/	.	2a/	-ct(us)
4A\	.	4cc\	qui
!LO:TX:t=P:problem:kreska pseudotaktowa	!	!LO:TX:t=P:problem:kreska pseudotaktowa	!
4B\	.	4dd\	.
=5-	=5-	=5-	=5-
4c\	.	4ee\	.
4d\	.	4ff\	.
*2\right	*	*2\right	*
2.c\	.	2.ee\	.
4B\	.	4dd\	.
4A/	.	1dd\	.
!LO:TX:t=P:problem:kreska pseudotaktowa	!	!	!
4G/	.	.	.
=6-	=6-	=6-	=6-
2F/	.	.	.
!	!	!LO:TX:t=P:problem:kreska pseudotaktowa	!
!LO:TX:t=P:problem:kreska pseudotaktowa	!	!LO:SIC:v:t=custos dd	!
2G/	-di-	2cc\	.
!LO:TX:t=P:problem:kreska pseudotaktowa	!	!LO:LB:g=original	!
1c	-ct(us)	1.dd	Ve-
=7-	=7-	=7-	=7-
1G	qvi	.	.
!	!	!LO:TX:t=P:problem:kreska pseudotaktowa	!
.	.	2cc\	.
2G/	.	2b/	.
!LO:TX:t=P:problem:kreska pseudotaktowa	!	!	!
2B\	.	4a/	.
.	.	4g/	.
=8-	=8-	=8-	=8-
!	!	!LO:TX:t=P:problem:kreska pseudotaktowa	!
2c\	Ve-	1a	-nit
!LO:TX:t=P:problem:kreska pseudotaktowa	!	!	!
2d\	.	.	.
!LO:LB:g=original	!	!	!
2A/	-nit	2r	.
!LO:TX:t=P:problem:kreska pseudotaktowa	!	!	!
2r	.	4g/	qui
!	!	!LO:TX:t=P:problem:kreska pseudotaktowa	!
.	.	4a/	.
=9-	=9-	=9-	=9-
00r	.	4b/	.
.	.	4cc\	.
.	.	2.b/	.
.	.	4a/	.
.	.	1a/	Ve-
=10-	=10-	=10-	=10-
.	.	.	.
!	!	!LO:TX:t=P:problem:kreska pseudotaktowa	!
.	.	2g/	-nit
.	.	4cc\	.
.	.	4dd\	.
.	.	4ee\	.
.	.	4ff\	.
=11-	=11-	=11-	=11-
!	!	!LO:TX:t=P:problem:kreska pseudotaktowa	!
2r	.	1gg	.
!LO:TX:t=P:problem:kreska pseudotaktowa	!	!	!
2c\	qvi	.	.
1.c	.	0r	.
=12-	=12-	=12-	=12-
.	.	.	.
!LO:TX:t=P:problem:kreska pseudotaktowa	!	!	!
2G/	Ve-	.	.
!	!	!LO:SIC:v:t=custos cc	!
1c	-nit	2r	.
!	!	!LO:LB:g=original	!
.	.	4cc\	qui
!	!	!LO:TX:t=P:problem:kreska pseudotaktowa	!
.	.	4dd\	.
=13-	=13-	=13-	=13-
2r	.	4ee\	.
.	.	4ff\	.
*	*ij	*	*
!LO:TX:t=P:problem:kreska pseudotaktowa	!	!	!
2c\	qvi	2.ee\	Ve-
1G	Ve-	.	.
.	.	4dd\	.
.	.	1dd\	.
=14-	=14-	=14-	=14-
2F/	.	.	.
!LO:TX:t=P:problem:kreska pseudotaktowa	!	!LO:TX:t=P:problem:kreska pseudotaktowa	!
2A/	.	2cc\	.
!	!	!LO:TX:t=P:problem:kreska pseudotaktowa	!
2A/	.	1dd	-nit
!LO:TX:t=P:problem:kreska pseudotaktowa	!	!	!
2A/	.	.	.
=15-	=15-	=15-	=15-
4c\	.	1r	.
4B\	.	.	.
4A\	.	.	.
4c\	.	.	.
2B\	.	0dd	Be-
4G/	.	.	.
!LO:TX:t=P:problem:kreska pseudotaktowa	!	!	!
4A/	.	.	.
=16-	=16-	=16-	=16-
4B\	.	.	.
4c\	.	.	.
4d\	.	.	.
!LO:TX:t=P:problem:kreska pseudotaktowa	!	!	!
4G/	.	.	.
!	!	!LO:TX:t=P:problem:kreska pseudotaktowa	!
2A/	.	1dd	-ne-
!LO:TX:t=P:problem:kreska pseudotaktowa	!	!	!
2G/	.	.	.
=17-	=17-	=17-	=17-
2G/	.	1.ee	-di-
4e\	.	.	.
!LO:TX:t=P:problem:kreska pseudotaktowa	!	!	!
4d\	.	.	.
4c\	.	.	.
8B\L 8d	.	.	.
8A\J	.	.	.
2G/	.	4dd\	.
!	!	!LO:TX:t=P:problem:kreska pseudotaktowa	!
.	.	4cc\	.
=18-	=18-	=18-	=18-
!LO:TX:t=P:problem:kreska pseudotaktowa	!	!	!
1G	-nit	4dd\	.
*	*Xij	*	*
.	.	4cc\	.
.	.	4b/	.
!	!	!LO:TX:t=P:problem:kreska pseudotaktowa	!
.	.	4a/	.
!LO:TX:t=P:problem:kreska pseudotaktowa	!	!	!
0r	.	1b	.
=19-	=19-	=19-	=19-
!	!	!LO:SIC:v:t=custos cc	!
.	.	2a/	-ctus
!	!	!LO:LB:g=original	!
.	.	4cc\	qui
!	!	!LO:TX:t=P:problem:kreska pseudotaktowa	!
.	.	4dd\	.
!LO:LB:g=original	!	!	!
2r	.	4ee\	.
.	.	4ff\	.
!LO:TX:t=P:problem:kreska pseudotaktowa	!	!	!
2A/	Qvi	2.ee\	.
=20-	=20-	=20-	=20-
4F/	Ve-	.	.
4G/	.	4dd\	.
!	!	!LO:TX:t=P:problem:kreska pseudotaktowa	!
4A/	.	2cc\	.
!LO:TX:t=P:problem:kreska pseudotaktowa	!	!	!
4B\	.	.	.
4c\	.	2b/	Ve-
4d\	.	.	.
1c\	.	2cc\	.
=21-	=21-	=21-	=21-
!	!	!LO:TX:t=P:problem:kreska pseudotaktowa	!
.	.	1g	-nit
4B\	.	.	.
!LO:TX:t=P:problem:kreska pseudotaktowa	!	!	!
4A\	.	.	.
2G/	.	2r	.
1G/	.	1dd\	Be-
=22-	=22-	=22-	=22-
.	.	.	.
!	!	!LO:TX:t=P:problem:kreska pseudotaktowa	!
4A\	.	2dd\	-ne-
8B\L	.	.	.
!LO:TX:t=P:problem:kreska pseudotaktowa	!	!	!
!LO:TX:t=P:problem:wykreślony takt	!	!	!
8c\J	.	.	.
2d\	.	1dd	-di-
1d\	.	.	.
=23-	=23-	=23-	=23-
.	.	2b/	-ct(us)
!LO:TX:t=P:problem:kreska pseudotaktowa	!	!LO:TX:t=P:problem:kreska pseudotaktowa	!
2e\	.	2cc\	qui
2c\	.	1dd	Ve-
!LO:TX:t=P:problem:kreska pseudotaktowa	!	!	!
2d\	.	.	.
=24-	=24-	=24-	=24-
2c\	.	2b/	-nit
!LO:TX:t=P:problem:kreska pseudotaktowa	!	!LO:TX:t=P:problem:kreska pseudotaktowa	!
2F/	.	2dd\	in
2c\	.	2ee\	no-
!	!	!LO:TX:t=P:problem:kreska pseudotaktowa	!
!	!	!LO:SIC:v:t=custos gg	!
1e\	.	2ff\	-mi-
=25-	=25-	=25-	=25-
!	!	!LO:LB:g=original	!
.	.	1gg,	-ne
4d\	.	.	.
!LO:TX:t=P:problem:kreska pseudotaktowa	!	!	!
4c\	.	.	.
4B\	.	2ee\	Do-
4A\	.	.	.
!LO:TX:t=P:problem:kreska pseudotaktowa	!	!LO:TX:t=P:problem:kreska pseudotaktowa	!
2G/	.	2ee\	-mi-
=26-	=26-	=26-	=26-
2c\	.	2dd\	-ni
!LO:LB:g=original	!	!	!
1A	.	4gg\	Do-
!	!	!LO:TX:t=P:problem:kreska pseudotaktowa	!
.	.	4ff\	.
.	.	4ee\	.
.	.	4dd\	.
!LO:TX:t=P:problem:kreska pseudotaktowa	!	!	!
2G/	-nit	4cc\	.
!	!	!LO:TX:t=P:problem:kreska pseudotaktowa	!
.	.	4b/	.
=27-	=27-	=27-	=27-
2A/	.	4a/	.
.	.	4b/	.
!LO:TX:t=P:problem:kreska pseudotaktowa	!	!	!
2r	.	1cc	.
2r	.	.	.
2.c\	in	2b/	mi-
=28-	=28-	=28-	=28-
!	!	!LO:TX:t=P:problem:kreska pseudotaktowa	!
.	.	0.cc	-ni
4B\	.	.	.
4A\	.	.	.
!LO:TX:t=P:problem:kreska pseudotaktowa	!	!	!
4G\	.	.	.
1G	No-	.	.
=29-	=29-	=29-	=29-
2G/	-mi-	.	.
2G/	-ne	.	.
2B\	.	2r	.
!LO:TX:t=P:problem:kreska pseudotaktowa	!	!	!
2c\	.	2dd\	in
=30-	=30-	=30-	=30-
2d\	Do-	2g/	no-
!	!	!LO:TX:t=P:problem:kreska pseudotaktowa	!
2.B\	.	2a/	-mi-
.	.	2b/	-ne
4c\	.	.	.
4d\	.	2.g/	Do-
!LO:TX:t=P:problem:kreska pseudotaktowa	!	!	!
4e\	.	.	.
=31-	=31-	=31-	=31-
2.d\	.	.	.
!	!	!LO:SIC:v:t=custos b	!
.	.	4a/	.
!	!	!LO:LB:g=original	!
.	.	4b/	.
!	!	!LO:TX:t=P:problem:kreska pseudotaktowa	!
8c\L	.	4cc\	.
8B\J	.	.	.
2A/	.	2.dd\	.
!LO:TX:t=P:problem:kreska pseudotaktowa	!	!	!
2G/	.	.	.
!	!	!LO:TX:t=P:problem:kreska pseudotaktowa	!
.	.	4ee\	.
=32-	=32-	=32-	=32-
!LO:TX:t=P:problem:kreska pseudotaktowa	!	!	!
1c	.	4ff\	.
.	.	4ee\	.
.	.	4gg\	.
!	!	!LO:TX:t=P:problem:kreska pseudotaktowa	!
.	.	4ff\	.
2.c\	.	4ee\	.
.	.	4dd\	.
.	.	2.ee\	.
4c\	-mi-	.	.
=33-	=33-	=33-	=33-
2G/	-ni	.	.
.	.	4dd\	.
!LO:TX:t=P:problem:kreska pseudotaktowa	!	!	!
2c\	.	1cc	.
2G/	In	.	.
!LO:TX:t=P:problem:kreska pseudotaktowa	!	!LO:TX:t=P:problem:kreska pseudotaktowa	!
2G/	No-	2b/	-mi-
=34-	=34-	=34-	=34-
!	!	!LO:TX:t=P:problem:kreska pseudotaktowa	!
2E/	-mi-	1b	-ni
2F/	-ne	.	.
!LO:LB:g=original	!	!	!
2G/	Do-	1r	.
4E/	.	.	.
!LO:TX:t=P:problem:kreska pseudotaktowa	!	!	!
4F/	.	.	.
=35-	=35-	=35-	=35-
4G/	.	2r	.
4A/	.	.	.
!	!	!LO:TX:t=P:problem:kreska pseudotaktowa	!
4B\	.	2g/	in
!LO:TX:t=P:problem:kreska pseudotaktowa	!	!	!
4F/	.	.	.
2G/	.	2a/	no-
!	!	!LO:TX:t=P:problem:kreska pseudotaktowa	!
4E/	.	2b/	-mi-
!LO:TX:t=P:problem:kreska pseudotaktowa	!	!	!
4F/	.	.	.
=36-	=36-	=36-	=36-
4G/	.	1.cc	-ne
4A/	.	.	.
2B\	.	.	.
2G/	.	.	.
!	!	!LO:TX:t=P:problem:kreska pseudotaktowa	!
!LO:TX:t=P:problem:kreska pseudotaktowa	!	!LO:SIC:v:t=custos a	!
2A/	.	2b/	.
=37-	=37-	=37-	=37-
!	!	!LO:LB:g=original	!
2.B\	.	2.a/	Do-
!	!	!LO:TX:t=P:problem:kreska pseudotaktowa	!
8A/L	.	4a/	-mi-
8G/J	.	.	.
!	!	!LO:TX:t=P:problem:kreska pseudotaktowa	!
2G/	.	1b	-ni
!LO:TX:t=P:problem:kreska pseudotaktowa	!	!	!
2B\	.	.	.
=38-	=38-	=38-	=38-
!	!	!LO:TX:t=P:problem:kreska pseudotaktowa	!
2c\	.	1dd	in
2d\	.	.	.
2e\	.	2ee\	no-
4d\	.	2ff\	-mi-
!LO:TX:t=P:problem:kreska pseudotaktowa	!	!	!
4c\	.	.	.
=39-	=39-	=39-	=39-
!	!	!LO:TX:t=P:problem:kreska pseudotaktowa	!
2B\	.	1gg	-ne
1c	.	.	.
.	.	2ee\	Do-
!	!	!LO:TX:t=P:problem:kreska pseudotaktowa	!
4G/	.	2ee\	-mi-
!LO:TX:t=P:problem:kreska pseudotaktowa	!	!	!
4A/	.	.	.
=40-	=40-	=40-	=40-
2A\	.	2dd\	-ni
!	!	!LO:TX:t=P:problem:kreska pseudotaktowa	!
2B\	.	2g/	in
2c\	.	2a/	no-
2.A\	.	2b/	-mi-
=41-	=41-	=41-	=41-
!	!	!LO:TX:t=P:problem:kreska pseudotaktowa	!
.	.	0cc	-ne
4B\	-mi-	.	.
4c\	.	.	.
4d\	.	.	.
2c\	.	.	.
2G/	.	.	.
=42-	=42-	=42-	=42-
00G;;	-ni.	1.cc	Do-
.	.	2b/	-mi-
=43-	=43-	=43-	=43-
!	!	!LO:TX:t=P:problem:kreska pseudotaktowa	!
.	.	0b	-ni
=44||-	=44||-	=44||	=44||
*M2/1	*	*M2/1	*
*met(C|)	*	*met(C|)	*
!LO:LB:g=original	!	!LO:LB:g=original	!
00r	.	0dd	O-
=45-	=45-	=45-	=45-
!	!	!LO:TX:t=P:problem:kreska pseudotaktowa	!
.	.	1dd	-ſan-
!	!	!LO:TX:t=P:problem:kreska pseudotaktowa	!
.	.	1cc#X	-na
=46-	=46-	=46-	=46-
!LO:TX:t=P:problem:kreska pseudotaktowa	!	!	!
00r	.	1dd	in
.	.	1dd	ex-
=47-	=47-	=47-	=47-
!	!	!LO:TX:t=P:problem:kreska pseudotaktowa	!
.	.	0ee	-cel-
=48-	=48-	=48-	=48-
2A/	O-	0dd	-ſis
4F/	-san-	.	.
!LO:TX:t=P:problem:kreska pseudotaktowa	!	!	!
4G/	.	.	.
4A\	.	.	.
4B\	.	.	.
4c\	.	.	.
4d\	.	.	.
=49-	=49-	=49-	=49-
!	!	!LO:TX:t=P:problem:kreska pseudotaktowa	!
1B	.	1r	.
2F/	-na	2r	.
!LO:TX:t=P:problem:kreska pseudotaktowa	!	!	!
2A/	.	1dd\	in
=50-	=50-	=50-	=50-
1B	in	.	.
!	!	!LO:TX:t=P:problem:kreska pseudotaktowa:między nutą a kropką	!
.	.	2.gg\	ex-
1c	ex-	.	.
.	.	4ff\	.
.	.	4ee\	.
!	!	!LO:TX:t=P:problem:kreska pseudotaktowa	!
.	.	4dd\	.
=51-	=51-	=51-	=51-
0c	-cel-	2.ccny\	-cel-
.	.	4b/	.
!	!	!LO:TX:t=P:problem:kreska pseudotaktowa	!
!	!	!LO:SIC:v:t=custos g	!
.	.	1a	.
=52-	=52-	=52-	=52-
!LO:TX:t=P:problem:kreska pseudotaktowa	!	!LO:PB:g=original	!
1B	-ſiſ	2g/	-ſis
!	!	!LO:TX:t=P:problem:kreska pseudotaktowa	!
.	.	2dd\	o-
1c	.	2.ee\	-ſan-
.	.	4dd\	-na
=53-	=53-	=53-	=53-
0r	.	2cc\	in
!	!	!LO:TX:t=P:problem:kreska pseudotaktowa	!
.	.	2b/	ex-
.	.	1a	-cel-
=54-	=54-	=54-	=54-
2r	.	2b/	-ſis
!	!	!LO:TX:t=P:problem:kreska pseudotaktowa	!
1B	O-	2dd\	o-
.	.	2.gg\	-ſan-
2.c\	-ſan-	.	.
.	.	4ff\	.
=55-	=55-	=55-	=55-
.	.	4ee\	.
4d\	-(n)a	4dd\	.
4e\	in	4cc\	.
!LO:TX:t=P:problem:kreska pseudotaktowa	!	!LO:TX:t=P:problem:kreska pseudotaktowa	!
4B\	.	4b\	.
2c\	ex-	2a/	.
4A\	-cel-	2cc\	-na
4B\	.	.	.
=56-	=56-	=56-	=56-
2A/	.	1dd	in
!LO:TX:t=P:problem:kreska pseudotaktowa	!	!	!
2G/	.	.	.
!	!	!LO:TX:t=P:problem:kreska pseudotaktowa	!
!	!	!LO:SIC:v:t=custos gg	!
0G	.	1ee	ex-
=57-	=57-	=57-	=57-
!	!	!LO:LB:g=original	!
.	.	2.gg\	-cel-
!	!	!LO:TX:t=P:problem:kreska pseudotaktowa	!
.	.	4ff\	.
0A	.	1ee	.
=58-	=58-	=58-	=58-
.	.	0dd	-ſis
0.G;;	-ſiſ.	.	.
=59-	=59-	=59-	=59-
.	.	0b	.
=-	=-	=-	=-
*-	*-	*-	*-
!!!system-decoration: [(s1,s2)]
!!!ENC: Katarzyna Serwa
!!!END: 2021-07-01
!!!ENC: Marta Chmielewska
!!!END: 2021-07-09
